public/icon/Z_ALL/WebStorm.svg

<?xml version="1.0" encoding="UTF-8"?>
<svg width="1025px" height="1024px" viewBox="0 0 1025 1024" version="1.1" xmlns="http://www.w3.org/2000/svg" xmlns:xlink="http://www.w3.org/1999/xlink">
    <title>WebStorm</title>
    <defs>
        <linearGradient x1="50%" y1="0%" x2="50%" y2="100%" id="linearGradient-1">
            <stop stop-color="#07C3F2" offset="0%"></stop>
            <stop stop-color="#087CFA" offset="100%"></stop>
        </linearGradient>
        <linearGradient x1="43.9057098%" y1="1.98349708%" x2="66.1029686%" y2="95.2450413%" id="linearGradient-2">
            <stop stop-color="#07C3F2" offset="28.5%"></stop>
            <stop stop-color="#087CFA" offset="94.1%"></stop>
        </linearGradient>
        <linearGradient x1="33.0952896%" y1="15.0842231%" x2="70.3513018%" y2="84.7205219%" id="linearGradient-3">
            <stop stop-color="#FCF84A" offset="14%"></stop>
            <stop stop-color="#07C3F2" offset="36.6%"></stop>
        </linearGradient>
        <linearGradient x1="44.3077695%" y1="24.896%" x2="56.250176%" y2="90.0571429%" id="linearGradient-4">
            <stop stop-color="#07C3F2" offset="28.5%"></stop>
            <stop stop-color="#087CFA" offset="94.1%"></stop>
        </linearGradient>
    </defs>
    <g id="ICON-新版方图标" stroke="none" stroke-width="1" fill="none" fill-rule="evenodd">
        <g id="WebStorm" transform="translate(0.061, 0)">
            <rect id="蒙版路径" fill="url(#linearGradient-1)" x="0" y="0" width="1024" height="1024"></rect>
            <polygon id="路径" fill="url(#linearGradient-2)" fill-rule="nonzero" points="167.549695 925.769102 30 106.782902 284.845686 0 447.986702 97.1618974 597.279157 17.0893646 908.63048 136.670985 733.761328 1024"></polygon>
            <polygon id="路径" fill="url(#linearGradient-3)" fill-rule="nonzero" points="1024 346.817357 891.8332 20.2693071 652.026906 0 282.187891 355.349491 382.372723 814.21148 567.833058 944.403361 1024 673.365407 912.092345 464.203719"></polygon>
            <polygon id="路径" fill="url(#linearGradient-4)" fill-rule="nonzero" points="818.772443 296.96 911.769844 462.521008 1024 345.776846 941.68909 144.134454"></polygon>
            <polygon id="路径" fill="#000000" fill-rule="nonzero" points="820.91023 204.369748 205.227557 204.369748 205.227557 819.630252 820.91023 819.630252"></polygon>
            <path d="M502.555868,711.553658 L271.674865,711.553658 L271.674865,750.789916 L502.555868,750.789916 L502.555868,711.553658 Z M498.788476,281.607332 L463.899791,415.709638 L424.906555,281.607332 L385.913319,281.607332 L346.920084,415.709638 L312.031399,281.607332 L258.672234,281.607332 L324.345052,511.935721 L367.442839,511.935721 L405.409937,378.857096 L442.350898,511.935721 L486.474823,511.935721 L552.147641,281.607332 L498.788476,281.607332 Z M562.409019,479.177905 L592.167015,443.349045 C612.68977,460.751634 635.264802,470.988452 660.918246,470.988452 C681.441002,470.988452 694.780793,462.798998 694.780793,449.491135 L694.780793,448.467454 C694.780793,435.159591 686.571691,429.017501 648.604593,418.780684 C602.428392,406.496503 571.644259,394.212322 571.644259,348.146644 L571.644259,347.122963 C571.644259,305.152012 605.506806,277.512605 652.709144,277.512605 C686.571691,277.512605 715.303549,287.749422 738.904718,307.199375 L712.225136,345.075599 C691.70238,330.744055 671.179624,322.554601 651.683006,322.554601 C632.186388,322.554601 621.92501,331.767737 621.92501,343.028236 L621.92501,344.051917 C621.92501,359.407143 632.186388,364.525552 672.205762,374.762369 C719.4081,387.04655 746.087683,403.425458 746.087683,444.372727 L746.087683,445.396408 C746.087683,491.462086 711.198998,517.054129 660.918246,517.054129 C625.003424,516.030448 590.114739,503.746267 562.409019,479.177905 L562.409019,479.177905 Z" id="形状" fill="#FFFFFF" fill-rule="nonzero"></path>
        </g>
    </g>
</svg>

<svg xmlns="http://www.w3.org/2000/svg" width="1025" height="1024"><defs><linearGradient id="a" x1="50%" x2="50%" y1="0%" y2="100%"><stop offset="0%" stop-color="#07C3F2"/><stop offset="100%" stop-color="#087CFA"/></linearGradient><linearGradient id="b" x1="43.906%" x2="66.103%" y1="1.983%" y2="95.245%"><stop offset="28.5%" stop-color="#07C3F2"/><stop offset="94.1%" stop-color="#087CFA"/></linearGradient><linearGradient id="c" x1="33.095%" x2="70.351%" y1="15.084%" y2="84.721%"><stop offset="14%" stop-color="#FCF84A"/><stop offset="36.6%" stop-color="#07C3F2"/></linearGradient><linearGradient id="d" x1="44.308%" x2="56.25%" y1="24.896%" y2="90.057%"><stop offset="28.5%" stop-color="#07C3F2"/><stop offset="94.1%" stop-color="#087CFA"/></linearGradient></defs><g fill="none" fill-rule="evenodd"><path fill="url(#a)" d="M0 0h1024v1024H0z" transform="translate(.061)"/><path fill="url(#b)" fill-rule="nonzero" d="M167.55 925.77 30 106.782 284.846 0l163.14 97.162L597.28 17.089 908.63 136.671 733.761 1024z" transform="translate(.061)"/><path fill="url(#c)" fill-rule="nonzero" d="M1024 346.817 891.833 20.27 652.027 0l-369.84 355.35L382.374 814.21l185.46 130.192L1024 673.365 912.092 464.204z" transform="translate(.061)"/><path fill="url(#d)" fill-rule="nonzero" d="m818.772 296.96 92.998 165.561L1024 345.777l-82.31-201.643z" transform="translate(.061)"/><path fill="#000" fill-rule="nonzero" d="M820.971 204.37H205.29v615.26H820.97z"/><path fill="#FFF" fill-rule="nonzero" d="M502.617 711.554H271.736v39.236h230.88v-39.236m-3.768-429.947L463.961 415.71l-38.993-134.103h-38.994L346.981 415.71l-34.889-134.103h-53.359l65.673 230.329h43.098l37.967-133.079 36.94 133.079h44.125l65.673-230.329h-53.36m63.621 197.57 29.758-35.828c20.523 17.403 43.098 27.64 68.751 27.64 20.523 0 33.863-8.19 33.863-21.498v-1.024c0-13.307-8.21-19.45-46.176-29.686-46.177-12.284-76.96-24.569-76.96-70.634v-1.024c0-41.971 33.862-69.61 81.064-69.61 33.863 0 62.595 10.236 86.196 29.686l-26.68 37.877c-20.523-14.332-41.045-22.521-60.542-22.521s-29.758 9.213-29.758 20.473v1.024c0 15.355 10.261 20.474 50.28 30.71 47.203 12.285 73.883 28.663 73.883 69.61v1.024c0 46.066-34.889 71.658-85.17 71.658-35.915-1.024-70.803-13.308-98.509-37.876"/></g></svg>
